X: 36710
T: Sheehan's
R: reel
M: 4/4
K: Gmajor
EF|:G2 BG DGBG|ABcA BGGB|A3 B cBAG|EGAG FDEF|
G2 BG DGBd|cBAB cdef|gfdB c2 Bc|1 dBcA BGAF:|2 dBcA BGBd||
|:g2 bg dgbg|gbag fdde|f2 af dfaf|gbag fdef|
g3 g a2 af|gbag fdef|gfdB c2 Bc|1 dBcA BGBd:|2 dBcA BG G2||

